src/assets/outline/ArrowUp1.svg

<svg width="24" height="24" viewBox="0 0 24 24"  xmlns="http://www.w3.org/2000/svg">
<path d="M12 22.75C6.07 22.75 1.25 17.93 1.25 12C1.25 6.07 6.07 1.25 12 1.25C17.93 1.25 22.75 6.07 22.75 12C22.75 17.93 17.93 22.75 12 22.75ZM12 2.75C6.9 2.75 2.75 6.9 2.75 12C2.75 17.1 6.9 21.25 12 21.25C17.1 21.25 21.25 17.1 21.25 12C21.25 6.9 17.1 2.75 12 2.75Z" />
<path d="M12 16.25C11.59 16.25 11.25 15.91 11.25 15.5V9.5C11.25 9.09 11.59 8.75 12 8.75C12.41 8.75 12.75 9.09 12.75 9.5V15.5C12.75 15.91 12.41 16.25 12 16.25Z" />
<path d="M14.9999 12.2499C14.8099 12.2499 14.6199 12.1799 14.4699 12.0299L11.9999 9.55994L9.52994 12.0299C9.23994 12.3199 8.75994 12.3199 8.46994 12.0299C8.17994 11.7399 8.17994 11.2599 8.46994 10.9699L11.4699 7.96994C11.7599 7.67994 12.2399 7.67994 12.5299 7.96994L15.5299 10.9699C15.8199 11.2599 15.8199 11.7399 15.5299 12.0299C15.3799 12.1799 15.1899 12.2499 14.9999 12.2499Z" />
</svg>

<?xml version="1.0" encoding="UTF-8"?>
<svg width="24" height="24" viewBox="0 0 24 24" xmlns="http://www.w3.org/2000/svg">
 <path d="m12 22.75c-5.93 0-10.75-4.82-10.75-10.75s4.82-10.75 10.75-10.75 10.75 4.82 10.75 10.75-4.82 10.75-10.75 10.75zm0-20c-5.1 0-9.25 4.15-9.25 9.25s4.15 9.25 9.25 9.25 9.25-4.15 9.25-9.25-4.15-9.25-9.25-9.25z"/>
 <path d="m12 16.25c-0.41 0-0.75-0.34-0.75-0.75v-6c0-0.41 0.34-0.75 0.75-0.75s0.75 0.34 0.75 0.75v6c0 0.41-0.34 0.75-0.75 0.75z"/>
 <path d="m15 12.25c-0.19 0-0.38-0.07-0.53-0.22l-2.47-2.47-2.47 2.47c-0.29 0.29-0.77 0.29-1.06 0s-0.29-0.77 0-1.06l3-3c0.29-0.29 0.77-0.29 1.06 0l3 3c0.29 0.29 0.29 0.77 0 1.06-0.15 0.15-0.34 0.22-0.53 0.22z"/>
</svg>
